assets/img/select-chevron-white.svg

<svg width="21" height="21" viewBox="0 0 21 21" fill="none" xmlns="http://www.w3.org/2000/svg">
<g id="Frame 14">
<path id="&#239;&#132;&#135;" d="M14.9337 12.3485C14.9337 12.4199 14.898 12.5003 14.8444 12.5538L14.398 13.0003C14.3444 13.0538 14.2641 13.0895 14.1927 13.0895C14.1212 13.0895 14.0409 13.0538 13.9873 13.0003L10.4784 9.49132L6.96944 13.0003C6.91587 13.0538 6.83551 13.0895 6.76408 13.0895C6.68372 13.0895 6.6123 13.0538 6.55872 13.0003L6.1123 12.5538C6.05872 12.5003 6.02301 12.4199 6.02301 12.3485C6.02301 12.277 6.05872 12.1967 6.1123 12.1431L10.273 7.9824C10.3266 7.92882 10.4069 7.89311 10.4784 7.89311C10.5498 7.89311 10.6302 7.92882 10.6837 7.9824L14.8444 12.1431C14.898 12.1967 14.9337 12.277 14.9337 12.3485Z" fill="white"/>
</g>
</svg>

<svg width="21" height="21" fill="none" xmlns="http://www.w3.org/2000/svg"><path d="M14.934 12.348a.307.307 0 01-.09.206l-.446.446a.308.308 0 01-.205.09.308.308 0 01-.206-.09l-3.509-3.509-3.509 3.51a.308.308 0 01-.205.088A.29.29 0 016.56 13l-.447-.446a.307.307 0 01-.089-.206c0-.071.036-.151.09-.205l4.16-4.16a.308.308 0 01.205-.09c.072 0 .152.036.206.09l4.16 4.16c.054.054.09.134.09.205z" fill="#fff"/></svg>
